X: 04008
T: BECKY ASHENDEN'S JIG
C: Bob McQuillen 22 July 79
B: Bob's Note Book 04 #8
%R: jig
Z: 2020 John Chambers <jc:trillian.mit.edu>
M: 6/8
L: 1/8
K: D
[|A2F A2B | AFA A2F | A2F A2B | AFD EFG | A2F A2B | AFA B2A | Bcd AFA | DEF E2D |
| A2F A2B | AFA B2A | BAB d2e | fed edB | A2F AdB | AFA B2A | Bcd ede | faf e2d |
|:dfe | dfa | afd =cde | dfe d2A | =cdc cde \
| dfe d2A | =cde edc | dAB AFD | =CDE D3 :|
%%begintext align
%% Becky Ashenden is a RED HOT
%% piano player with Cammy
%% Kaynor. I love to hear her
%% play! I hope you like this tune,
%% Becky!
%%endtext

%%sep 1 1 500

%%sep 1 1 500

